images/indikatorenset/4135.svg

<svg class="highcharts-root" xmlns="http://www.w3.org/2000/svg" viewBox="0 0 485 415" font-family="Arial" font-size="12">
    <defs>
        <clipPath id="a">
            <path fill="none" d="M0 0h423v250H0z"/>
        </clipPath>
    </defs>
    <rect fill="#fbfbfb" class="highcharts-background" width="485" height="415" rx="0" ry="0"/>
    <path fill="none" class="highcharts-plot-background" d="M52 100h423v250H52z"/>
    <g class="highcharts-grid highcharts-xaxis-grid">
        <path fill="none" class="highcharts-grid-line" d="M72.5 100v250m35-250v250m34-250v250m35-250v250m35-250v250m34-250v250m35-250v250m34-250v250m35-250v250m35-250v250m34-250v250m35-250v250"/>
    </g>
    <g class="highcharts-grid highcharts-yaxis-grid">
        <path fill="none" stroke="#e6e6e6" class="highcharts-grid-line" d="M52 350.5h423m-423-50h423m-423-50h423m-423-50h423m-423-50h423m-423-51h423"/>
    </g>
    <path fill="none" class="highcharts-plot-border" d="M52 100h423v250H52z"/>
    <g class="highcharts-axis highcharts-xaxis">
        <path fill="none" class="highcharts-tick" stroke="#FFF" d="M72.5 350v10m35-10v10m34-10v10m35-10v10m35-10v10m34-10v10m35-10v10m34-10v10m35-10v10m35-10v10m34-10v10m35-10v10"/>
        <path fill="none" class="highcharts-axis-line" stroke="#ccd6eb" d="M52 350.5h423"/>
    </g>
    <g class="highcharts-axis highcharts-yaxis">
        <path fill="none" class="highcharts-axis-line" d="M52 100v250"/>
    </g>
    <g class="highcharts-series-group">
        <g class="highcharts-series highcharts-series-0 highcharts-column-series highcharts-color-undefined highcharts-tracker" transform="translate(52 100)" clip-path="url(#a)">
            <path fill="#68ab2b" class="highcharts-point" stroke="#fff" d="M6.5 140.5h9v60h-9zm34-11h9v71h-9zm35 47h9v24h-9zm34-16h9v40h-9zm35-54h9v94h-9zm35 20h9v74h-9zm34 4h9v70h-9zm35 16h9v54h-9zm34 19h9v35h-9zm35-39h9v74h-9zm35-84h9v158h-9zm34 76h9v82h-9z"/>
        </g>
        <g class="highcharts-series highcharts-series-1 highcharts-column-series highcharts-color-undefined highcharts-tracker" transform="translate(52 100)" clip-path="url(#a)">
            <path fill="#cd9c00" class="highcharts-point highcharts-negative" stroke="#fff" d="M16.5 200.5h9v3h-9zm35 0h9v27h-9zm34 0h9v21h-9zm35 0h9v25h-9zm34 0h9v30h-9zm35 0h9v29h-9zm35 0h9v12h-9zm34 0h9v5h-9zm35 0h9v8h-9zm35 0h9v11h-9zm34 0h9v36h-9zm35 0h9v15h-9z"/>
        </g>
        <g class="highcharts-series highcharts-series-2 highcharts-column-series highcharts-color-undefined highcharts-tracker" transform="translate(52 100)" clip-path="url(#a)">
            <path fill="#008ac3" class="highcharts-point highcharts-negative" stroke="#fff" d="M26.5 200.5h9v14h-9zm35 0h9v11h-9zm35 0h9v15h-9zm34 0h9v6h-9zm35 0h9v4h-9zm34 0h9v4h-9z"/>
            <path fill="#008ac3" class="highcharts-point" stroke="#fff" d="M234.5 196.5h9v4h-9zm35-2h9v6h-9zm34-1h9v7h-9zm35-29h9v36h-9zm34 31h9v5h-9zm35-16h9v21h-9z"/>
        </g>
        <g class="highcharts-series highcharts-series-3 highcharts-line-series highcharts-color-undefined" transform="translate(52 100)" clip-path="url(#a)">
            <path fill="none" d="M21.115 157l34.616 10.4 34.615 44.8 34.616-21.8 34.615-50.4 34.615 18.4 34.616-20.6 34.615 8.2 34.615 19.8 34.616-65L367.269 73l34.616 38.4" class="highcharts-graph" stroke="#2e1435" stroke-width="2" stroke-linejoin="round" stroke-linecap="round"/>
            <path fill="none" d="M11.115 157h10l34.616 10.4 34.615 44.8 34.616-21.8 34.615-50.4 34.615 18.4 34.616-20.6 34.615 8.2 34.615 19.8 34.616-65L367.269 73l34.616 38.4h10" stroke-linejoin="round" stroke="rgba(192,192,192,0.0001)" stroke-width="22" class="highcharts-tracker"/>
        </g>
    </g>
    <text x="10" class="highcharts-title" y="21" color="#000" font-size="14" font-weight="700">
        <tspan>Nettowohnungsproduktion</tspan>
    </text>
    <g class="highcharts-legend" transform="translate(10 30)">
        <rect fill="none" class="highcharts-legend-box" rx="0" ry="0" width="453" height="25"/>
        <g class="highcharts-legend-item highcharts-column-series highcharts-color-undefined highcharts-series-0">
            <text x="21" y="15" color="#333" font-weight="400" cursor="pointer" fill="#333" transform="translate(8 3)">
                Neubau
            </text>
            <path fill="#68ab2b" class="highcharts-point" d="M10 7h12v12H10z"/>
        </g>
        <g class="highcharts-legend-item highcharts-column-series highcharts-color-undefined highcharts-series-1">
            <text x="21" y="15" color="#333" font-weight="400" cursor="pointer" fill="#333" transform="translate(91.016 3)">
                Abbruch
            </text>
            <path fill="#cd9c00" class="highcharts-point" d="M93.016 7h12v12h-12z"/>
        </g>
        <g class="highcharts-legend-item highcharts-column-series highcharts-color-undefined highcharts-series-2">
            <text x="21" y="15" color="#333" font-weight="400" cursor="pointer" fill="#333" transform="translate(176.688 3)">
                Umbausaldo
            </text>
            <path fill="#008ac3" class="highcharts-point" d="M178.688 7h12v12h-12z"/>
        </g>
        <g class="highcharts-legend-item highcharts-line-series highcharts-color-undefined highcharts-series-3">
            <path fill="none" d="M285.016 14h16" class="highcharts-graph" stroke="#2e1435" stroke-width="2"/>
            <text x="21" y="15" color="#333" font-weight="400" cursor="pointer" fill="#333" transform="translate(285.016 3)">
                Nettowohnungsproduktion
            </text>
        </g>
    </g>
    <g class="highcharts-axis-labels highcharts-xaxis-labels" text-anchor="middle" color="#000" cursor="default" font-size="11">
        <text x="73.115" y="369">
            2005
        </text>
        <text x="107.731" y="369">
            2006
        </text>
        <text x="142.346" y="369">
            2007
        </text>
        <text x="176.962" y="369">
            2008
        </text>
        <text x="211.577" y="369">
            2009
        </text>
        <text x="246.192" y="369">
            2010
        </text>
        <text x="280.808" y="369">
            2011
        </text>
        <text x="315.423" y="369">
            2012
        </text>
        <text x="350.038" y="369">
            2013
        </text>
        <text x="384.654" y="369">
            2014
        </text>
        <text x="419.269" y="369">
            2015
        </text>
        <text x="453.885" y="369">
            2016
        </text>
    </g>
    <g class="highcharts-axis-labels highcharts-yaxis-labels" text-anchor="end" color="#000" cursor="default" font-size="11">
        <text x="37" y="355">
            <tspan>-250</tspan>
        </text>
        <text x="37" y="305">
            <tspan>0</tspan>
        </text>
        <text x="37" y="255">
            <tspan>250</tspan>
        </text>
        <text x="37" y="205">
            <tspan>500</tspan>
        </text>
        <text x="37" y="155">
            <tspan>750</tspan>
        </text>
        <text x="37" y="105">
            <tspan>1 000</tspan>
        </text>
    </g>
    <text x="10" class="highcharts-credits" y="400" cursor="default" color="#000" font-size="10">
        <tspan>Quelle: Statistisches Amt Basel-Stadt, kantonale Gebäude- und Wohnungsstatistik</tspan>
    </text>
</svg>

<?xml version="1.0" standalone="no"?><!DOCTYPE svg PUBLIC "-//W3C//DTD SVG 1.1//EN" "http://www.w3.org/Graphics/SVG/1.1/DTD/svg11.dtd"><svg xmlns:xlink="http://www.w3.org/1999/xlink" version="1.1" class="highcharts-root" style="font-family:arial;font-size:12px;" xmlns="http://www.w3.org/2000/svg" width="485" height="415"><desc>Created with Highstock 5.0.14</desc><defs><clipPath id="highcharts-zeqs9qn-6"><rect x="0" y="0" width="423" height="250" fill="none"></rect></clipPath><clipPath id="highcharts-zeqs9qn-7"><rect x="0" y="0" width="423" height="250" fill="none"></rect></clipPath></defs><rect fill="#fbfbfb" class="highcharts-background" x="0" y="0" width="485" height="415" rx="0" ry="0"></rect><rect fill="none" class="highcharts-plot-background" x="52" y="100" width="423" height="250"></rect><g class="highcharts-pane-group"></g><g class="highcharts-grid highcharts-xaxis-grid "><path fill="none" class="highcharts-grid-line" d="M 72.5 100 L 72.5 350" opacity="1"></path><path fill="none" class="highcharts-grid-line" d="M 107.5 100 L 107.5 350" opacity="1"></path><path fill="none" class="highcharts-grid-line" d="M 141.5 100 L 141.5 350" opacity="1"></path><path fill="none" class="highcharts-grid-line" d="M 176.5 100 L 176.5 350" opacity="1"></path><path fill="none" class="highcharts-grid-line" d="M 211.5 100 L 211.5 350" opacity="1"></path><path fill="none" class="highcharts-grid-line" d="M 245.5 100 L 245.5 350" opacity="1"></path><path fill="none" class="highcharts-grid-line" d="M 280.5 100 L 280.5 350" opacity="1"></path><path fill="none" class="highcharts-grid-line" d="M 314.5 100 L 314.5 350" opacity="1"></path><path fill="none" class="highcharts-grid-line" d="M 349.5 100 L 349.5 350" opacity="1"></path><path fill="none" class="highcharts-grid-line" d="M 384.5 100 L 384.5 350" opacity="1"></path><path fill="none" class="highcharts-grid-line" d="M 418.5 100 L 418.5 350" opacity="1"></path><path fill="none" class="highcharts-grid-line" d="M 453.5 100 L 453.5 350" opacity="1"></path></g><g class="highcharts-grid highcharts-yaxis-grid "><path fill="none" stroke="#e6e6e6" stroke-width="1" class="highcharts-grid-line" d="M 52 350.5 L 475 350.5" opacity="1"></path><path fill="none" stroke="#e6e6e6" stroke-width="1" class="highcharts-grid-line" d="M 52 300.5 L 475 300.5" opacity="1"></path><path fill="none" stroke="#e6e6e6" stroke-width="1" class="highcharts-grid-line" d="M 52 250.5 L 475 250.5" opacity="1"></path><path fill="none" stroke="#e6e6e6" stroke-width="1" class="highcharts-grid-line" d="M 52 200.5 L 475 200.5" opacity="1"></path><path fill="none" stroke="#e6e6e6" stroke-width="1" class="highcharts-grid-line" d="M 52 150.5 L 475 150.5" opacity="1"></path><path fill="none" stroke="#e6e6e6" stroke-width="1" class="highcharts-grid-line" d="M 52 99.5 L 475 99.5" opacity="1"></path></g><rect fill="none" class="highcharts-plot-border" x="52" y="100" width="423" height="250"></rect><g class="highcharts-axis highcharts-xaxis "><path fill="none" class="highcharts-tick" stroke="#FFFFFF" stroke-width="1" d="M 72.5 350 L 72.5 360" opacity="1"></path><path fill="none" class="highcharts-tick" stroke="#FFFFFF" stroke-width="1" d="M 107.5 350 L 107.5 360" opacity="1"></path><path fill="none" class="highcharts-tick" stroke="#FFFFFF" stroke-width="1" d="M 141.5 350 L 141.5 360" opacity="1"></path><path fill="none" class="highcharts-tick" stroke="#FFFFFF" stroke-width="1" d="M 176.5 350 L 176.5 360" opacity="1"></path><path fill="none" class="highcharts-tick" stroke="#FFFFFF" stroke-width="1" d="M 211.5 350 L 211.5 360" opacity="1"></path><path fill="none" class="highcharts-tick" stroke="#FFFFFF" stroke-width="1" d="M 245.5 350 L 245.5 360" opacity="1"></path><path fill="none" class="highcharts-tick" stroke="#FFFFFF" stroke-width="1" d="M 280.5 350 L 280.5 360" opacity="1"></path><path fill="none" class="highcharts-tick" stroke="#FFFFFF" stroke-width="1" d="M 314.5 350 L 314.5 360" opacity="1"></path><path fill="none" class="highcharts-tick" stroke="#FFFFFF" stroke-width="1" d="M 349.5 350 L 349.5 360" opacity="1"></path><path fill="none" class="highcharts-tick" stroke="#FFFFFF" stroke-width="1" d="M 384.5 350 L 384.5 360" opacity="1"></path><path fill="none" class="highcharts-tick" stroke="#FFFFFF" stroke-width="1" d="M 418.5 350 L 418.5 360" opacity="1"></path><path fill="none" class="highcharts-tick" stroke="#FFFFFF" stroke-width="1" d="M 453.5 350 L 453.5 360" opacity="1"></path><path fill="none" class="highcharts-axis-line" stroke="#ccd6eb" stroke-width="1" d="M 52 350.5 L 475 350.5"></path></g><g class="highcharts-axis highcharts-yaxis "><path fill="none" class="highcharts-axis-line" d="M 52 100 L 52 350"></path></g><g class="highcharts-series-group"><g class="highcharts-series highcharts-series-0 highcharts-column-series highcharts-color-undefined " transform="translate(52,100) scale(1 1)" clip-path="url(#highcharts-zeqs9qn-7)"><rect x="6.5" y="140.5" width="9" height="60" fill="#68ab2b" stroke="#ffffff" stroke-width="1" class="highcharts-point"></rect><rect x="40.5" y="129.5" width="9" height="71" fill="#68ab2b" stroke="#ffffff" stroke-width="1" class="highcharts-point"></rect><rect x="75.5" y="176.5" width="9" height="24" fill="#68ab2b" stroke="#ffffff" stroke-width="1" class="highcharts-point"></rect><rect x="109.5" y="160.5" width="9" height="40" fill="#68ab2b" stroke="#ffffff" stroke-width="1" class="highcharts-point"></rect><rect x="144.5" y="106.5" width="9" height="94" fill="#68ab2b" stroke="#ffffff" stroke-width="1" class="highcharts-point"></rect><rect x="179.5" y="126.5" width="9" height="74" fill="#68ab2b" stroke="#ffffff" stroke-width="1" class="highcharts-point"></rect><rect x="213.5" y="130.5" width="9" height="70" fill="#68ab2b" stroke="#ffffff" stroke-width="1" class="highcharts-point"></rect><rect x="248.5" y="146.5" width="9" height="54" fill="#68ab2b" stroke="#ffffff" stroke-width="1" class="highcharts-point"></rect><rect x="282.5" y="165.5" width="9" height="35" fill="#68ab2b" stroke="#ffffff" stroke-width="1" class="highcharts-point"></rect><rect x="317.5" y="126.5" width="9" height="74" fill="#68ab2b" stroke="#ffffff" stroke-width="1" class="highcharts-point"></rect><rect x="352.5" y="42.5" width="9" height="158" fill="#68ab2b" stroke="#ffffff" stroke-width="1" class="highcharts-point"></rect><rect x="386.5" y="118.5" width="9" height="82" fill="#68ab2b" stroke="#ffffff" stroke-width="1" class="highcharts-point"></rect></g><g class="highcharts-markers highcharts-series-0 highcharts-column-series highcharts-color-undefined " transform="translate(52,100) scale(1 1)" clip-path="none"></g><g class="highcharts-series highcharts-series-1 highcharts-column-series highcharts-color-undefined " transform="translate(52,100) scale(1 1)" clip-path="url(#highcharts-zeqs9qn-7)"><rect x="16.5" y="200.5" width="9" height="3" fill="#cd9c00" stroke="#ffffff" stroke-width="1" class="highcharts-point highcharts-negative"></rect><rect x="51.5" y="200.5" width="9" height="27" fill="#cd9c00" stroke="#ffffff" stroke-width="1" class="highcharts-point highcharts-negative"></rect><rect x="85.5" y="200.5" width="9" height="21" fill="#cd9c00" stroke="#ffffff" stroke-width="1" class="highcharts-point highcharts-negative"></rect><rect x="120.5" y="200.5" width="9" height="25" fill="#cd9c00" stroke="#ffffff" stroke-width="1" class="highcharts-point highcharts-negative"></rect><rect x="154.5" y="200.5" width="9" height="30" fill="#cd9c00" stroke="#ffffff" stroke-width="1" class="highcharts-point highcharts-negative"></rect><rect x="189.5" y="200.5" width="9" height="29" fill="#cd9c00" stroke="#ffffff" stroke-width="1" class="highcharts-point highcharts-negative"></rect><rect x="224.5" y="200.5" width="9" height="12" fill="#cd9c00" stroke="#ffffff" stroke-width="1" class="highcharts-point highcharts-negative"></rect><rect x="258.5" y="200.5" width="9" height="5" fill="#cd9c00" stroke="#ffffff" stroke-width="1" class="highcharts-point highcharts-negative"></rect><rect x="293.5" y="200.5" width="9" height="8" fill="#cd9c00" stroke="#ffffff" stroke-width="1" class="highcharts-point highcharts-negative"></rect><rect x="328.5" y="200.5" width="9" height="11" fill="#cd9c00" stroke="#ffffff" stroke-width="1" class="highcharts-point highcharts-negative"></rect><rect x="362.5" y="200.5" width="9" height="36" fill="#cd9c00" stroke="#ffffff" stroke-width="1" class="highcharts-point highcharts-negative"></rect><rect x="397.5" y="200.5" width="9" height="15" fill="#cd9c00" stroke="#ffffff" stroke-width="1" class="highcharts-point highcharts-negative"></rect></g><g class="highcharts-markers highcharts-series-1 highcharts-column-series highcharts-color-undefined " transform="translate(52,100) scale(1 1)" clip-path="none"></g><g class="highcharts-series highcharts-series-2 highcharts-column-series highcharts-color-undefined " transform="translate(52,100) scale(1 1)" clip-path="url(#highcharts-zeqs9qn-7)"><rect x="26.5" y="200.5" width="9" height="14" fill="#008ac3" stroke="#ffffff" stroke-width="1" class="highcharts-point highcharts-negative"></rect><rect x="61.5" y="200.5" width="9" height="11" fill="#008ac3" stroke="#ffffff" stroke-width="1" class="highcharts-point highcharts-negative"></rect><rect x="96.5" y="200.5" width="9" height="15" fill="#008ac3" stroke="#ffffff" stroke-width="1" class="highcharts-point highcharts-negative"></rect><rect x="130.5" y="200.5" width="9" height="6" fill="#008ac3" stroke="#ffffff" stroke-width="1" class="highcharts-point highcharts-negative"></rect><rect x="165.5" y="200.5" width="9" height="4" fill="#008ac3" stroke="#ffffff" stroke-width="1" class="highcharts-point highcharts-negative"></rect><rect x="199.5" y="200.5" width="9" height="4" fill="#008ac3" stroke="#ffffff" stroke-width="1" class="highcharts-point highcharts-negative"></rect><rect x="234.5" y="196.5" width="9" height="4" fill="#008ac3" stroke="#ffffff" stroke-width="1" class="highcharts-point"></rect><rect x="269.5" y="194.5" width="9" height="6" fill="#008ac3" stroke="#ffffff" stroke-width="1" class="highcharts-point"></rect><rect x="303.5" y="193.5" width="9" height="7" fill="#008ac3" stroke="#ffffff" stroke-width="1" class="highcharts-point"></rect><rect x="338.5" y="164.5" width="9" height="36" fill="#008ac3" stroke="#ffffff" stroke-width="1" class="highcharts-point"></rect><rect x="372.5" y="195.5" width="9" height="5" fill="#008ac3" stroke="#ffffff" stroke-width="1" class="highcharts-point"></rect><rect x="407.5" y="179.5" width="9" height="21" fill="#008ac3" stroke="#ffffff" stroke-width="1" class="highcharts-point"></rect></g><g class="highcharts-markers highcharts-series-2 highcharts-column-series highcharts-color-undefined " transform="translate(52,100) scale(1 1)" clip-path="none"></g><g class="highcharts-series highcharts-series-3 highcharts-line-series highcharts-color-undefined " transform="translate(52,100) scale(1 1)" clip-path="url(#highcharts-zeqs9qn-7)"><path fill="none" d="M 21.115384615381 157 L 55.730769230767 167.39999999999998 L 90.346153846152 212.2 L 124.96153846154 190.4 L 159.57692307692 140 L 194.19230769231 158.39999999999998 L 228.80769230769 137.8 L 263.42307692308 146 L 298.03846153846 165.8 L 332.65384615385 100.79999999999998 L 367.26923076923 73 L 401.88461538462 111.4" class="highcharts-graph" stroke="#2e1435" stroke-width="2" stroke-linejoin="round" stroke-linecap="round"></path></g><g class="highcharts-markers highcharts-series-3 highcharts-line-series highcharts-color-undefined " transform="translate(52,100) scale(1 1)" clip-path="none"></g></g><text x="10" text-anchor="start" class="highcharts-title" style="color:#000000;font-size:14px;font-weight:bold;fill:#000000;" y="21"><tspan>Nettowohnungsproduktion</tspan></text><g class="highcharts-legend" transform="translate(10,30)"><rect fill="none" class="highcharts-legend-box" rx="0" ry="0" x="0" y="0" width="273" height="39" visibility="visible"></rect><g><g><g class="highcharts-legend-item highcharts-column-series highcharts-color-undefined highcharts-series-0" transform="translate(8,3)"><text x="21" style="color:#333333;font-size:12px;font-weight:normal;cursor:pointer;fill:#333333;" text-anchor="start" y="15"><tspan>Neubau</tspan></text><rect x="2" y="4" width="12" height="12" fill="#68ab2b" class="highcharts-point"></rect></g><g class="highcharts-legend-item highcharts-column-series highcharts-color-undefined highcharts-series-1" transform="translate(91.015625,3)"><text x="21" y="15" style="color:#333333;font-size:12px;font-weight:normal;cursor:pointer;fill:#333333;" text-anchor="start"><tspan>Abbruch</tspan></text><rect x="2" y="4" width="12" height="12" fill="#cd9c00" class="highcharts-point"></rect></g><g class="highcharts-legend-item highcharts-column-series highcharts-color-undefined highcharts-series-2" transform="translate(176.6875,3)"><text x="21" y="15" style="color:#333333;font-size:12px;font-weight:normal;cursor:pointer;fill:#333333;" text-anchor="start"><tspan>Umbausaldo</tspan></text><rect x="2" y="4" width="12" height="12" fill="#008ac3" class="highcharts-point"></rect></g><g class="highcharts-legend-item highcharts-line-series highcharts-color-undefined highcharts-series-3" transform="translate(8,17)"><path fill="none" d="M 0 11 L 16 11" class="highcharts-graph" stroke="#2e1435" stroke-width="2"></path><text x="21" y="15" style="color:#333333;font-size:12px;font-weight:normal;cursor:pointer;fill:#333333;" text-anchor="start"><tspan>Nettowohnungsproduktion</tspan></text></g></g></g></g><g class="highcharts-axis-labels highcharts-xaxis-labels "><text x="73.1153846153815" style="color:#000000;cursor:default;font-size:11px;fill:#000000;" text-anchor="middle" transform="translate(0,0)" y="369" opacity="1">2005</text><text x="107.73076923076668" style="color:#000000;cursor:default;font-size:11px;fill:#000000;" text-anchor="middle" transform="translate(0,0)" y="369" opacity="1">2006</text><text x="142.34615384615188" style="color:#000000;cursor:default;font-size:11px;fill:#000000;" text-anchor="middle" transform="translate(0,0)" y="369" opacity="1">2007</text><text x="176.96153846153703" style="color:#000000;cursor:default;font-size:11px;fill:#000000;" text-anchor="middle" transform="translate(0,0)" y="369" opacity="1">2008</text><text x="211.57692307692224" style="color:#000000;cursor:default;font-size:11px;fill:#000000;" text-anchor="middle" transform="translate(0,0)" y="369" opacity="1">2009</text><text x="246.1923076923074" style="color:#000000;cursor:default;font-size:11px;fill:#000000;" text-anchor="middle" transform="translate(0,0)" y="369" opacity="1">2010</text><text x="280.8076923076926" style="color:#000000;cursor:default;font-size:11px;fill:#000000;" text-anchor="middle" transform="translate(0,0)" y="369" opacity="1">2011</text><text x="315.42307692307776" style="color:#000000;cursor:default;font-size:11px;fill:#000000;" text-anchor="middle" transform="translate(0,0)" y="369" opacity="1">2012</text><text x="350.03846153846297" style="color:#000000;cursor:default;font-size:11px;fill:#000000;" text-anchor="middle" transform="translate(0,0)" y="369" opacity="1">2013</text><text x="384.6538461538481" style="color:#000000;cursor:default;font-size:11px;fill:#000000;" text-anchor="middle" transform="translate(0,0)" y="369" opacity="1">2014</text><text x="419.26923076923333" style="color:#000000;cursor:default;font-size:11px;fill:#000000;" text-anchor="middle" transform="translate(0,0)" y="369" opacity="1">2015</text><text x="453.8846153846185" style="color:#000000;cursor:default;font-size:11px;fill:#000000;" text-anchor="middle" transform="translate(0,0)" y="369" opacity="1">2016</text></g><g class="highcharts-axis-labels highcharts-yaxis-labels "><text x="37" style="color:#000000;cursor:default;font-size:11px;fill:#000000;" text-anchor="end" transform="translate(0,0)" y="355" opacity="1"><tspan>-250</tspan></text><text x="37" style="color:#000000;cursor:default;font-size:11px;fill:#000000;" text-anchor="end" transform="translate(0,0)" y="305" opacity="1"><tspan>0</tspan></text><text x="37" style="color:#000000;cursor:default;font-size:11px;fill:#000000;" text-anchor="end" transform="translate(0,0)" y="255" opacity="1"><tspan>250</tspan></text><text x="37" style="color:#000000;cursor:default;font-size:11px;fill:#000000;" text-anchor="end" transform="translate(0,0)" y="205" opacity="1"><tspan>500</tspan></text><text x="37" style="color:#000000;cursor:default;font-size:11px;fill:#000000;" text-anchor="end" transform="translate(0,0)" y="155" opacity="1"><tspan>750</tspan></text><text x="37" style="color:#000000;cursor:default;font-size:11px;fill:#000000;" text-anchor="end" transform="translate(0,0)" y="105" opacity="1"><tspan>1 000</tspan></text></g><text x="10" class="highcharts-credits" text-anchor="start" style="cursor:default;color:#000000;font-size:10px;fill:#000000;" y="400"><tspan>Quelle: Statistisches Amt Basel-Stadt, kantonale Gebäude- und Wohnungsstatistik</tspan></text></svg>
